!!!OTL@@DE: Des Deutschen Vaterland
!!!COM: Reichardt, Gustav
!!!ODT: 1825
!!!OMD: Mit Feuer
!!!LYR: Arndt, Ernst Moritz
!!!LDT: 1813
!!!OCL: Erk, Ludwig
!!!GCO: Deutscher Liederschatz, Band 1
**kern	**kern	**kern
*staff3	*staff2	*staff1
*Ipiano	*Ipiano	*Ivox
*>[A,A,B]	*>[A,A,B]	*>[A,A,B]
*>A	*>A	*>A
*clefF4	*clefG2	*clefG2
*k[f#c#g#]	*k[f#c#g#]	*k[f#c#g#]
*A:	*A:	*A:
*met(C)	*met(C)	*met(C)
*M4/4	*M4/4	*M4/4
*MM104	*MM104	*MM104
8EE'/ 8E'/L	8e'/L	8e/
8FF#'/ 8F#'/	8f#'/	8f#/
8GG#'/ 8G#'/J	8g#'/J	8g#/
=1	=1	=1
4.AA\ 4.A\	4.a/	4.a/
8EE/ 8E/	8e/	8e/
4.C#\ 4.c#\	4.cc#\	4.cc#\
8BB\ 8B\	8b\	8b\
=2	=2	=2
2AA\ 2A\	2a/	2a/
4r	4r	4r
4AA\ 4A\	4a/	4a/
=3	=3	=3
8.GG#\ 8.G#\L	8.e/ 8.b/ 8.dd/L	8.dd\
16AA\ 16A\Jk	16e/ 16a/ 16cc#/Jk	16cc#\
8.E\L	8.e/ 8.g#/ (8.b/L	4b\
16E\Jk	16e/Jk	.
4E\	4e/)	4r
4E\	4e/ 4g#/ 4b/	4b\
=4	=4	=4
8.C#\ 8.c#\L	8.e/ 8.a/ 8.ee/L	8.ee\
16BB\ 16B\Jk	16e/ 16g#/ 16dd/Jk	16dd\
8.AA\ 8.A\L	8.e/ 8.a/ 8.cc#/L	4cc#\
16A\Jk	16a/Jk	.
4A\	4a/	4r
4A\	4e/ 4a/ 4cc#/	4cc#\
=5	=5	=5
2B\	4.d#/ 4.f#/ 4.cc#/	4.cc#\
.	8d#/ 8f#/ 8b/	8b\
*	*^	*
2BB\ 2B\	4.b/	2d#\ 2f#\	4.b\
.	8a/	.	8a/
*	*v	*v	*
=6	=6	=6
4E\	8.e/ 8.g#/L	8.g#/
.	16e/ 16f#/ 16a/Jk	16a/
4E\	8.e/ 8.g#/ 8.b/L	4b\
.	16e/ 16g#/ 16b/Jk	.
4E\	4e/ 4g#/ 4b/	4r
4E\	4e/ 4g#/ 4b/	4b\
=7	=7	=7
2C#/	4.e#/ 4.g#/ 4.cc#/	4.cc#\
.	8e#/ 8g#/ 8dd/	8dd\
*	*^	*
2CC#/ 2C#/	4.cc#/	2e#\ 2g#\	4.cc#\
.	8b/	.	8b\
*	*v	*v	*
=8	=8	=8
4FF#/ 4F#/	8.f#/ 8.a/L	8.a/
.	16f#/ 16g#/ 16b/Jk	16b\
4FF#/ 4F#/	4f#/ 4a/ 4cc#/	4cc#\
4r	4r	4r
4GGn/ 4Gn/	4e/ 4a/ 4cc#/	4cc#\
=9	=9	=9
4FF#/ 4F#/	4d/ 4a/ 4dd/	4dd\
4r	4r	4r
4EE/ 4E/	4e/ 4gn/ 4a/ 4cc#/	4cc#\
4r	4r	4r
=10	=10	=10
2DD/ 2D/	2f#/ 2a/ 2dd/	2ff#\
4r	4r	8r
.	.	8dd\
*	*^	*
4DD/ 4D/	8dd/L	4f#\ 4a\	8dd\
.	8cc#/J	.	8cc#\
*	*v	*v	*
=11	=11	=11
2EE/ 2E/	2e/ 2a/ 2b/	4.b\
.	.	8b\
2EE/ 2E/	2e/ 2g#/ 2b/	4.ee^\
.	.	8dd\
=12	=12	=12
4AA\ 4A\	4e/ 4a/ 4cc#/	4cc#\
4DD/ 4D/	4f#/ 4a/ 4dd/	4ff#\
*	*^	*
4DD/ 4D/	(8ee/L	4f#\ 4a\	8ee\L
.	8dd/J)	.	8dd\J
4DD/ 4D/	8cc#/L	4d\ 4f#\	8cc#\L
.	8b/J	.	8b\J
=13	=13	=13	=13
4CC#/ 4C#/	4a/	4e\	4a/
*	*v	*v	*
4DD/ 4D/	4f#/ 4a/ 4b/	4b\
4EE/ 4E/	4e/ 4a/ 4cc#/	4.cc#^\
4EE/ 4E/	4d/ 4e/ 4g#/	.
.	.	8b\
=14	=14	=14
2AA\ 2A\	2c#/ 2e/ 2a/	2a/
8r;	8r;	8r;
=:|!	=:|!	=:|!
*>B	*>B	*>B
8EE'/ 8E'/L	8e'/L	8e/
8FF#'/ 8F#'/	8f#'/	8f#/
8GG#'/ 8G#'/J	8g#'/J	8g#/
=15	=15	=15
4.AA\ 4.A\	4.a/	4.a/
8EE/ 8E/	8e/	8e/
4.C#\ 4.c#\	4.cc#\	4.cc#\
8BB\ 8B\	8b\	8b\
=16	=16	=16
2AA\ 2A\	2a/	2a/
4r	4r	4r
4AA\ 4A\	4a/	4a/
=17	=17	=17
4GG#'/ 4G#'/	4e'/ 4b'/ 4dd'/	4dd'\
4AA'\ 4A'\	4e'/ 4a'/ 4cc#'/	4cc#'\
4D'\	4B'/ 4f#'/ 4b'/	4b'\
4D#'\	4B'/ 4f#'/ 4a'/	4a'/
=18	=18	=18
4E\	8.B/ 8.e/ 8.g#/L	8.g#/
.	16f#/ 16a/Jk	16a/
4EE/ 4E/	4e/ 4g#/ 4b/	4b\
4r	4r	4r
4Cn\ 4cn\	4e/ 4gn/ 4ccn/	4ccn\
=19	=19	=19
2Cn\ 2cn\	2fn/ 2a/ 2ccn/	2ccn\
2C\ 2c\	2gn/ 2b-/ 2cc/	2cc\
=20	=20	=20
2Cn\ 2cn\	2fn/ 2a/ 2ccn/	4.ccn\
.	.	8cc\
2C\ 2c\	2gn/ 2b-/ 2cc/	4.cc\
.	.	8cc\
=21	=21	=21
2Fn\	2fn/ 2a/ 2ccn/	2ccn\
2F\	2f/ 2a/ 2cc#/	2cc#\
=22	=22	=22
2Fn\	2fn/ 2a/ 2dd/	2dd\
2FFn/ 2F/	2a\ 2ccn\ 2dd#\	2dd#\
=23	=23	=23
2EE/ (2E/	2.a\ 2.cc#\ 2.ee\	2.ee\
&(4AA\&) 4A\)	.	.
4C#/	4e/ 4a/ 4cc#/	4ee\
=24	=24	=24
[2E\	2e/ 2g#/ 2b/	2.ee\
4EE/ 4E/]	4e/ 4g#/ 4b/	.
4EE/ 4E/	4e/ 4g#/ 4b/	4ddn\
=25	=25	=25
2AA\ 2A\	2e/ 2a/ 2cc#/	2cc#\
8r	8r	8r
8A'\ 8c#'\L	8a'/ 8cc#'/L	8cc#'\
8E'\ 8B'\	8e'/ 8b'/	8b'\
8C#'\ 8A'\J	8c#'/ 8a'/J	8a'/
=26	=26	=26
8E'/ 8G#'/L	4e/ 4b/	4b\
8EE'/ 8E'/	.	.
8GG#'/ 8G#'/	4r	4r
8BB'/ 8B'/J	.	.
8E'\ 8e'\L	8r	8r
8B'\ 8d'\	8b'\ 8dd'\L	8dd'\
8A'\ 8c#'\	8a'\ 8cc#'\	8cc#'\
8E'\ 8B'\J	8g#'\ 8b'\J	8b'\
=27	=27	=27
8A'/ 8c#'/L	4a/ 4cc#/	4cc#\
8AAA'/ 8AA'/	.	.
8CC#'/ 8C#'/	4r	4r
8EE'/ 8E'/J	.	.
8AA'/ 8A'/L	8r	8r
8GGn/ 8Gn/	8e/ 8a/ 8cc#/L	8cc#\
8GG/ 8G/	8e/ 8a/ 8cc#/	8cc#\
8GG/ 8G/J	8e/ 8a/ 8cc#/J	8cc#\
=28	=28	=28
2FF#/ 2F#/	2d/ 2a/ 2dd/	4.dd\
.	.	8dd\
2EE/ 2E/	2gn/ 2a/ 2cc#/	4.cc#\
.	.	8cc#\
=29	=29	=29
*	*^	*
4DD/ 4D/	[1ff#	4f#\ 4a\ 4dd\	[1ff#
4D\ 4d\	.	4f#\ 4a#\	.
4D\ 4d\	.	4f#\ 4b\	.
4D#\ 4d#\	.	4f#\ 4an\ 4b#\	.
=30	=30	=30	=30
2.E\ 2.e\	(2ff#/]	2.a\ 2.cc#\	(2ff#\]
.	4ee/)	.	4ee\)
4E\ 4e\	4ee/	4a\ 4cc#\	4ee\
*	*v	*v	*
=31	=31	=31
2.EE/ 2.E/	2.e/ 2.g#/ 2.b/ 2.ee/	2.ee\
4EE/ 4E/	4e/ 4g#/ 4b/ 4dd/	4dd\
=32	=32	=32
2.AA\ 2.A\	2.e/ 2.a/ 2.cc#/	2.cc#\
=	=	=
4EE/ 4E/	4e/	4e/
=33	=33	=33
4.C#\ 4.c#\	4.cc#\	4.cc#\
8BB\ 8B\	8b\	8b\
4AA\ 4A\	4a/	4a/
4C#\ 4c#\	4e/	4e/
=34	=34	=34
4D'\ 4d'\	4f#'/	4f#'/
4BB'\ 4B'\	4d'/ 4e'/ 4g#'/	4g#'/
4AA'\ 4A'\	4c#'/ 4e'/ 4a'/	4a'/
4AA\ 4A\	4a/	4a/
=35	=35	=35
4.GG#/ 4.G#/	4.e^/ 4.b^/ 4.dd^/	4.dd^\
8AA\ 8A\	8e/ 8a/ 8cc#/	8cc#\
4D\	4B/ 4f#/ 4b/	4b\
4D#\	4B/ 4f#/ 4a/	4a/
=36	=36	=36
4E\	8.B/ 8.e/ 8.g#/L	8.g#/
.	16f#/ 16a/Jk	16a/
4EE/ 4E/	4e/ 4g#/ 4b/	4b\
4r	4r	4r
4Cn/	4e/ 4gn/ 4ccn/	4ccn\
=37	=37	=37
2Cn/	2e/ 2gn/ 2ccn/	2ccn\
2C/	2e/ 2g/ 2cc/	2cc\
=38	=38	=38
2Cn/	2fn/ 2a/ 2ccn/	4ccn\
.	.	4cc\
2C/	2gn/ 2b-/ 2cc/	4.cc\
.	.	8cc\
=39	=39	=39
2Fn\	2fn/ 2a/ 2ccn/	2ccn\
2F\	2f/ 2a/ 2cc#/	2cc#\
=40	=40	=40
2Fn\	2fn/ 2a/ 2dd/	2dd\
2FFn/ 2F/	2a\ 2ccn\ 2dd#\	2dd#\
=41	=41	=41
2EE/ (2E/	2.a\ 2.cc#\ 2.ee\	2.ee\
&(4AA\&) 4A\)	.	.
4C#/	4e/ 4a/ 4cc#/	4ee\
=42	=42	=42
2.E\	2.e/ 2.g#/ 2.b/	2.ee\
4EE/ 4E/	4e/ 4g#/ 4b/ 4ddn/	4ddn\
=43	=43	=43
2AA\ 2A\	2e/ 2a/ 2cc#/	2cc#\
8r	8r	8r
8A'\ 8c#'\L	8a'/ 8cc#'/L	8cc#'\
8E'\ 8B'\	8e'/ 8b'/	8b'\
8C#'\ 8A'\J	8c#'/ 8a'/J	8a'/
=44	=44	=44
8E'/ 8G#'/L	4e/ 4b/	4b\
8EE'/ 8E'/	.	.
8GG#'/ 8G#'/	4r	4r
8BB'/ 8B'/J	.	.
8E'\ 8e'\L	8r	8r
8B'\ 8d'\	8b'/ 8dd'/L	8dd'\
8A'\ 8c#'\	8a'/ 8cc#'/	8cc#'\
8E'\ 8B'\J	8g#'/ 8b'/J	8b'\
=45	=45	=45
8A'/ 8c#'/L	4a/ 4cc#/	4cc#\
8AAA'/ 8AA'/	.	.
8CC#'/ 8C#'/	4r	4r
8EE'/ 8E'/J	.	.
8AA'/ 8A'/L	8r	8r
8GGn/ 8Gn/	8e/ 8a/ 8cc#/L	8cc#\
8GG/ 8G/	8e/ 8a/ 8cc#/	8cc#\
8GG/ 8G/J	8e/ 8a/ 8cc#/J	8cc#\
=46	=46	=46
2FF#/ 2F#/	2d/ 2a/ 2dd/	4.dd\
.	.	8dd\
2EE/ 2E/	2gn/ 2a/ 2cc#/	4.cc#\
.	.	8cc#\
=47	=47	=47
*	*^	*
4DD/ 4D/	[1ff#	4f#\ 4a\ 4dd\	[1ff#
4D\ 4d\	.	4f#\ 4a#\	.
4D\ 4d\	.	4f#\ 4b\	.
4D#\ 4d#\	.	4f#\ 4an\ 4b#\	.
=48	=48	=48	=48
2.E\ 2.e\	(2ff#/]	2.a\ 2.cc#\	(2ff#\]
.	4ee/	.	4ee\)
4E\ 4e\	4ee/)	4a\ 4cc#\	4ee\
*	*v	*v	*
=49	=49	=49
2.EE/ 2.E/	2.e/ 2.g#/ 2.b/ 2.ee/	2.ee\
4EE/ 4E/	4e/ 4g#/ 4b/ 4dd/	4dd\
=50	=50	=50
2AA\ 2A\	2e/ 2a/ 2cc#/	4.cc#\
.	.	8cc#\
2AA^\ 2A^\	2f#^/ 2a^/ 2dd^/	4.dd^\
.	.	8dd\
=51	=51	=51
2AA\ 2A\	2e/ 2a/ 2cc#/	4.cc#\
.	.	8cc#\
2AA^\ 2A^\	2f#^/ 2a^/ 2dd^/	4.dd^\
.	.	8dd\
=52	=52	=52
32AA\LLL	1e; 1a; 1cc#;	1cc#
32A\	.	.
32AA\	.	.
32A\	.	.
32AA\	.	.
32A\	.	.
32AA\	.	.
32A\	.	.
32AA\	.	.
32A\	.	.
32AA\	.	.
32A\	.	.
32AA\	.	.
32A\	.	.
32AA\	.	.
32A\JJJ	.	.
2AA;/	.	.
==	==	==
*-	*-	*-
!!!ENC: Craig Stuart Sapp
!!!END: 2004/06/27/
!!!EFL: 142/651
